svgs/regular/square-up-left.svg

<svg xmlns="http://www.w3.org/2000/svg" viewBox="0 0 448 512"><!--! Font Awesome Pro 6.0.0-alpha3 by @fontawesome - https://fontawesome.com License - https://fontawesome.com/license (Commercial License) --><path d="M255.6 242.3l41.37-41.38c6.859-6.875 8.922-17.19 5.203-26.16S289.7 160 280 160h-128C138.8 160 128 170.8 128 184v128c0 9.719 5.844 18.47 14.81 22.19C145.8 335.4 148.9 336 152 336c6.234 0 12.38-2.438 16.97-7.031l41.37-41.38l64.57 64.57c9.369 9.371 24.57 9.37 33.94-.0012l11.31-11.31c9.369-9.367 9.369-24.57 .0002-33.94L255.6 242.3zM384 32H64C28.65 32 0 60.66 0 96v320c0 35.34 28.65 64 64 64h320c35.35 0 64-28.66 64-64V96C448 60.66 419.3 32 384 32zM400 416c0 8.82-7.178 16-16 16H64c-8.822 0-16-7.18-16-16V96c0-8.82 7.178-16 16-16h320c8.822 0 16 7.18 16 16V416z"/></svg>

<svg xmlns="http://www.w3.org/2000/svg" viewBox="0 0 448 512"><!-- Font Awesome Pro 6.0.0-alpha2 by @fontawesome - https://fontawesome.com License - https://fontawesome.com/license (Commercial License) --><path d="M255.596 242.344L296.969 200.969C303.828 194.094 305.891 183.781 302.172 174.812S289.703 160 280 160H152C138.75 160 128 170.75 128 184V312C128 321.719 133.844 330.469 142.812 334.188C145.781 335.406 148.906 336 152 336C158.234 336 164.375 333.562 168.969 328.969L210.342 287.594L274.912 352.164C284.281 361.535 299.484 361.535 308.854 352.164L320.166 340.852C329.535 331.484 329.535 316.281 320.166 306.91L255.596 242.344ZM384 32H64C28.654 32 0 60.656 0 96V416C0 451.344 28.654 480 64 480H384C419.346 480 448 451.344 448 416V96C448 60.656 419.346 32 384 32ZM400 416C400 424.82 392.822 432 384 432H64C55.178 432 48 424.82 48 416V96C48 87.18 55.178 80 64 80H384C392.822 80 400 87.18 400 96V416Z"/></svg>
